assets/img/braze_icons/toggle-01-right.svg

<svg fill="none" height="24" viewBox="0 0 24 24" width="24" xmlns="http://www.w3.org/2000/svg"><path clip-rule="evenodd" d="m17 6c3.3137 0 6 2.68629 6 6 0 3.3137-2.6863 6-6 6h-10c-3.31371 0-6-2.6863-6-6 0-3.31371 2.68629-6 6-6zm-4.4722 10c-.9501-1.0615-1.5278-2.4633-1.5278-4s.5777-2.93849 1.5278-4h-5.5278c-2.20914 0-4 1.79086-4 4 0 2.2091 1.79086 4 4 4z" fill="#801ed7" fill-rule="evenodd"/></svg>

<svg width="24" height="24" viewBox="0 0 24 24" fill="none" xmlns="http://www.w3.org/2000/svg">
<path fill-rule="evenodd" clip-rule="evenodd" d="M17 6C20.3137 6 23 8.68629 23 12C23 15.3137 20.3137 18 17 18H7C3.68629 18 1 15.3137 1 12C1 8.68629 3.68629 6 7 6H17ZM12.5278 16C11.5777 14.9385 11 13.5367 11 12C11 10.4633 11.5777 9.06151 12.5278 8H7C4.79086 8 3 9.79086 3 12C3 14.2091 4.79086 16 7 16H12.5278Z" fill="#801ED7"/>
</svg>
